X: 4
T: Dinkey's
R: reel
M: 4/4
L: 1/8
K: Amix
| (3cdc (3BcB ABcd | e^gfd edcd | gB (3BBB gBaB | gB (3BBB gaed |
(3cdc (3BcB ABcd | e^gfd edcd | gfge dfed |1 (3cdc (3BcB A>fed :|2 (3cdc (3BcB A>f^gd |
|: aA (3AAA aAbA | aA (3AAA {ab}aefg | gB (3BBB gBaB | gB (3BBB gef^g |
|1 aA (3AAA aAbA | aA (3AAA {ab}agef | gfge dfed | (3cdc (3BcB A>ef^g :|
|2 aA (3AAA gA (3AAA | fA (3AAA edef | gfge dfed | (3cdc (3BcB A>fed ||


Tune 24	Setting 12405

